X:238
T:Genoese Waltz. TWC.238
L:1/8
C:(German)
B:Thomas Wilson Companion to the Ballroom 1816
Z:vmp.Mike Hicken 2015 www.village-music-project.org.uk
M:3/8
Q:3/8=50
K:C
"_Allegretto"\
g|g/e/cc|c2g|g/f/dd|d2g|g/e/cg|g/f/dg|g/a/g/f/e/d/|c2 :|
|: g|fdb|c'gg|fdb|c'3/2b/a/^g/|a/^g/a/b/c'/a/|=g/^f/g/a/b/c'/|^g/a/a/f/d/B/|c3 :|
|:g/f/|eee|f3/2g/a/f/|ddd|e2 g/f/|eee|f3/2a/c'/a/|g/a/g/f/e/d/|c2 :|

